X: 20902
Q: "Moderato"
M: 3/4
L: 1/8
K: F
c |\
cf f2 {gf}ef | bg f2 ef | dc c3 B | Af2 z2c |\
cf f2 {gf}ef | bg f2 ef | (dc) c3 B | Af2 z2
c |\
cA c2 _e2 | dB d3 e | fc (bagf) | eg2 z2 c |\


